X:1
T:James Gibb editions
T:Psalm 23 (Becker) - Schütz
%%score [ ( 1 2 ) ( 3 4 ) ]
L:1/8
Q:1/4=100
M:2/2
K:F
V:1 treble nm="Soprano Alto"
V:2 treble 
V:3 bass nm="Tenor Bass"
V:4 bass 
V:1
"^Cornelius Becker\n(1561-1604)""^Psalm 23, SWV 120""^Heinrich Schütz\n(1585-1672)" G4 B2 d2 | %1
w: ~Der Herr ist|
 A2 c2 (B>AB)G | ^F3 A B2 c2 | d2 f2 (ed e2) | d4 ||[M:2/2] c4 d2 (cB) | A2 c2 (BA) G2 | %7
w: mein ge- treu\- * * er|Hirt, dem ich mich|ganz ver- trau\- * *|e,|zur Weid er *|mich, sein Schäf\_- * lein|
 F3 E F2 A2 | (G3 F/E/ F)G E2 | D4 || d4 c2 B2 | f3 _e (dB) c2 | B4 B4 | c2 d2 _e2 d2 | %14
w: führt auf schö- ner|grü * * * nen Au-|e,|zum fri- schen|Was- ser leit * er|mich, mein|Seel zu la- ben|
 (c>dc)B A3 A | B2 d2 (c3 B/A/ | B)c A2 G8 |] %17
w: kräf\- * * tig- lich durchs|se- lig Wort * *|* der Gna- den.|
V:2
 D4 G2 F2 | F2 G2 (G>AG)G | D3 ^F G2 A2 | B3 A (AF A2) | A4 ||[M:2/2] F4 F2 E2 | F2 E2 (DC) C2 | %7
 C3 C D2 F2 | (E3 D/C/ D)D ^C2 | D4 || F4 A2 G2 | A3 G F2 F2 | F4 D4 | F2 F2 G2 G2 | G3 G ^F3 F | %15
 G2 F2 (A3 G/^F/ | G)G ^F2 G8 |] %17
V:3
 B,4 D2 B,2 | C2 _E2 D3 C | A,3 D D2 F2 | F2 D2 (^C D2 C) | D4 ||[M:2/2] A,4 B,2 G,2 | %6
 F,2 A,2 (D,F,) E,2 | F,3 G, B,2 C2 | (C2- C/B,/A,/G,/ B,)B, A,2 | A,4 || D4 F2 D2 | %11
 D3 B, B,2 A,2 | B,4 B,4 | A,2 A,2 C2 D2 | %14
"^2. Er führet mich auf rechter Bahn von seines Namens wegen;\nobgleich viel Trübsal geht heran aufs Todes finstern Stegen,\nso grauet mir doch nichts dafür mein treuer Hirt ist stets bei mir,\nsein Steck'n und Stab mich tröstet.\n\n3. Ein köstlich'n Tisch er mir bereit, sollts auch die Feind verdrießen\nschenkt mir voll ein, das Öl der Freud über mein Haupt tut fließen,\nsein Güte und Barmherzigkeit werden mir folgen alle Zeit,\nin seinem Haus ich bleibe." (_E>DE)D D3 D | %15
 D2 D2 (F3 D | _EE) D2 D8 |] %17
V:4
 G,4 G,2 B,2 | F,2 C,2 (G,>^F,G,)_E, | D,3 D, G,2 F,2 | B,3 D (A,B, A,2) | D,4 || %5
[M:2/2] F,4 B,,2 C,2 | D,2 A,,2 (B,,F,,) C,2 | F,,3 C, B,,2 F,,2 | (C,3 D, B,,)G,, A,,2 | D,4 || %10
 B,4 F,2 G,2 | D,3 _E, (B,,D,) F,2 | B,,4 G,4 | F,2 D,2 C,2 =B,,2 | (C,>=B,,C,)G, D,3 D, | %15
 G,2 B,2 (F,3 G, | _E,)C, D,2 G,8 |] %17

